images/RFI.svg

<svg height="250" viewBox="0 0 250 250" width="250" xmlns="http://www.w3.org/2000/svg"><path d="m250 125c0 69.035156-55.964844 125-125 125s-125-55.964844-125-125 55.964844-125 125-125 125 55.964844 125 125" fill="#000a0f"/><g fill="#00a5f3"><path d="m189.65625 60.34375h-129.3125v129.3125h129.3125zm-39.414062 89.898438c-13.9375 13.949218-36.546876 13.949218-50.484376 0l-27.765624 27.765624v-106.035156h106.035156l-27.769532 27.769532c13.949219 13.9375 13.949219 36.546874 0 50.480468"/><path d="m99.757812 99.757812c-13.949218 13.9375-13.949218 36.546876 0 50.484376l50.484376-50.484376c-13.9375-13.949218-36.546876-13.949218-50.484376 0"/></g></svg>

<svg xmlns="http://www.w3.org/2000/svg" xmlns:xlink="http://www.w3.org/1999/xlink" width="250px" height="250px" viewBox="0 0 250 250" version="1.1">
<g id="surface1">
<path style=" stroke:none;fill-rule:nonzero;fill:rgb(0%,3.921569%,5.882353%);fill-opacity:1;" d="M 250 125 C 250 194.035156 194.035156 250 125 250 C 55.964844 250 0 194.035156 0 125 C 0 55.964844 55.964844 0 125 0 C 194.035156 0 250 55.964844 250 125 "/>
<path style=" stroke:none;fill-rule:nonzero;fill:rgb(0%,64.705884%,95.294118%);fill-opacity:1;" d="M 189.65625 60.34375 L 60.34375 60.34375 L 60.34375 189.65625 L 189.65625 189.65625 Z M 150.242188 150.242188 C 136.304688 164.191406 113.695312 164.191406 99.757812 150.242188 L 71.992188 178.007812 L 71.992188 71.972656 L 178.027344 71.972656 L 150.257812 99.742188 C 164.207031 113.679688 164.207031 136.289062 150.257812 150.222656 "/>
<path style=" stroke:none;fill-rule:nonzero;fill:rgb(0%,64.705884%,95.294118%);fill-opacity:1;" d="M 99.757812 99.757812 C 85.808594 113.695312 85.808594 136.304688 99.757812 150.242188 L 150.242188 99.757812 C 136.304688 85.808594 113.695312 85.808594 99.757812 99.757812 "/>
</g>
</svg>
